public/images/d5.svg

<svg width="48" height="48" viewBox="0 0 48 48" fill="none" xmlns="http://www.w3.org/2000/svg">
<g clip-path="url(#clip0_8186_669)">
<path d="M0 46.8837V11.1627L10.0465 1.11621H58.0465V37.9534L48 47.9999L0 46.8837Z" fill="#00CC00"/>
<path d="M28.7578 27.5469C30.1641 28.5156 31.4609 29.224 32.6484 29.6719L31.7578 31.7812C30.112 31.1875 28.4714 30.25 26.8359 28.9688C25.138 29.9167 23.263 30.3906 21.2109 30.3906C19.138 30.3906 17.2578 29.8906 15.5703 28.8906C13.8828 27.8906 12.5807 26.4844 11.6641 24.6719C10.7578 22.8594 10.3047 20.8177 10.3047 18.5469C10.3047 16.2865 10.763 14.2292 11.6797 12.375C12.5964 10.5208 13.8984 9.10938 15.5859 8.14062C17.2839 7.17188 19.1797 6.6875 21.2734 6.6875C23.388 6.6875 25.2943 7.19271 26.9922 8.20312C28.6901 9.20312 29.9818 10.6094 30.8672 12.4219C31.763 14.224 32.2109 16.2604 32.2109 18.5312C32.2109 20.4167 31.9245 22.1146 31.3516 23.625C30.7786 25.125 29.9141 26.4323 28.7578 27.5469ZM22.0859 23.6719C23.8359 24.1615 25.2786 24.8906 26.4141 25.8594C28.1953 24.2344 29.0859 21.7917 29.0859 18.5312C29.0859 16.6771 28.7682 15.0573 28.1328 13.6719C27.5078 12.2865 26.5859 11.2135 25.3672 10.4531C24.1589 9.68229 22.7995 9.29688 21.2891 9.29688C19.0286 9.29688 17.1536 10.0729 15.6641 11.625C14.1745 13.1667 13.4297 15.474 13.4297 18.5469C13.4297 21.526 14.1641 23.8125 15.6328 25.4062C17.112 27 18.9974 27.7969 21.2891 27.7969C22.3724 27.7969 23.3932 27.5938 24.3516 27.1875C23.4036 26.5729 22.4036 26.1354 21.3516 25.875L22.0859 23.6719ZM42.0859 27.4844L42.4922 29.9688C41.7005 30.1354 40.9922 30.2188 40.3672 30.2188C39.3464 30.2188 38.5547 30.0573 37.9922 29.7344C37.4297 29.4115 37.0339 28.9896 36.8047 28.4688C36.5755 27.9375 36.4609 26.8281 36.4609 25.1406V15.5938H34.3984V13.4062H36.4609V9.29688L39.2578 7.60938V13.4062H42.0859V15.5938H39.2578V25.2969C39.2578 26.099 39.3047 26.6146 39.3984 26.8438C39.5026 27.0729 39.6641 27.2552 39.8828 27.3906C40.112 27.526 40.4349 27.5938 40.8516 27.5938C41.1641 27.5938 41.5755 27.5573 42.0859 27.4844Z" fill="white"/>
</g>
<defs>
<clipPath id="clip0_8186_669">
<rect width="48" height="48" fill="white"/>
</clipPath>
</defs>
</svg>

<svg xmlns="http://www.w3.org/2000/svg" width="48" height="48" fill="none"><g clip-path="url(#a)"><path fill="#0C0" d="M0 46.884V11.163L10.047 1.116h48v36.837L48 48z"/><path fill="#fff" d="M28.758 27.547q2.11 1.453 3.89 2.125l-.89 2.11q-2.47-.891-4.922-2.813-2.547 1.422-5.625 1.422-3.11 0-5.64-1.5-2.532-1.5-3.907-4.22-1.36-2.718-1.36-6.124 0-3.39 1.376-6.172 1.374-2.781 3.906-4.234 2.547-1.454 5.687-1.453 3.172 0 5.72 1.515 2.546 1.5 3.874 4.219 1.344 2.703 1.344 6.11 0 2.828-.86 5.093a10.7 10.7 0 0 1-2.593 3.922m-6.672-3.875q2.625.735 4.328 2.187 2.672-2.437 2.672-7.328 0-2.781-.953-4.86-.938-2.076-2.766-3.218-1.812-1.155-4.078-1.156-3.39 0-5.625 2.328-2.234 2.313-2.234 6.922 0 4.468 2.203 6.86 2.218 2.39 5.656 2.39a7.8 7.8 0 0 0 3.063-.61 9.8 9.8 0 0 0-3-1.312zm20 3.812.406 2.485q-1.187.25-2.125.25-1.53 0-2.375-.485-.843-.484-1.187-1.265-.345-.797-.344-3.328v-9.547h-2.063v-2.188h2.063v-4.11l2.797-1.687v5.797h2.828v2.188h-2.828v9.703q0 1.203.14 1.547.157.343.485.547.344.203.969.203.468 0 1.234-.11"/></g><defs><clipPath id="a"><path fill="#fff" d="M0 0h48v48H0z"/></clipPath></defs></svg>
